X:1
T:Majos
T:Muisje
O:belgium
C:Trad.
Z:Bart Vanhaverbeke 
P:AB
L:1/8
M:2/4
K:G
P:A
BdgB | B2 A2 | AceA | c2 B2 | BdgB| B2 A2 | (3 Adf (3 Adf | g2 z2 |]
P:B
K:D
fA ag|fA gf | eA fA| cf a2 | fA ag | fA gf | eA fe |1 d2 df :|2d2 z2 |]
